X:44
T:Dan the Cobbler
S:Kilkenny Tavern sessions, London
B:Mozart Allen, no date, Allan's Irish Fiddler,
B:No. 17, Glasgow;
B:Geraldine Cotter, 1989, Traditional Irish Tin
B:Whistle Tutor, No. 8.
N:One of an improbable number of different versions
N:of 'Kitty's Rambles', etc. Another tune of
N:uncertain modality.
Z:ATB
R:jig
M:6/8
L:1/8
K:G
G|DFA B2A|def g2e|fdf ecA|BdB AFE|
DFA B2A|def gfe|fdf ecB|Adc d2:|]
|:g|fad fad|faa agf|eg=c egc|efg gfe|
f3 g3|agf efg|fed cAG|Adc d2:|]
